src/4-icons/window.svg

<svg width="260" height="260" viewBox="0 0 260 260" fill="none" xmlns="http://www.w3.org/2000/svg">
<g opacity="0.9">
<path d="M39 62C39 65.866 35.866 69 32 69C28.134 69 25 65.866 25 62C25 58.134 28.134 55 32 55C35.866 55 39 58.134 39 62Z" fill="black"/>
<path d="M56 69C59.866 69 63 65.866 63 62C63 58.134 59.866 55 56 55C52.134 55 49 58.134 49 62C49 65.866 52.134 69 56 69Z" fill="black"/>
<path d="M87 62C87 65.866 83.866 69 80 69C76.134 69 73 65.866 73 62C73 58.134 76.134 55 80 55C83.866 55 87 58.134 87 62Z" fill="black"/>
<path fill-rule="evenodd" clip-rule="evenodd" d="M10 35C4.47715 35 0 39.4771 0 45V215C0 220.523 4.47716 225 10 225H250C255.523 225 260 220.523 260 215V45C260 39.4772 255.523 35 250 35H10ZM246 75V54C246 51.2386 243.761 49 241 49H19C16.2386 49 14 51.2386 14 54V75H246ZM14 89V206C14 208.761 16.2386 211 19 211H241C243.761 211 246 208.761 246 206V89H14Z" fill="black"/>
</g>
</svg>

<svg width="260" height="260" viewBox="0 0 260 260" fill="none" xmlns="http://www.w3.org/2000/svg"><g opacity=".9" fill="#000"><path d="M39 62a7 7 0 1 1-14 0 7 7 0 0 1 14 0Zm17 7a7 7 0 1 0 0-14 7 7 0 0 0 0 14Zm31-7a7 7 0 1 1-14 0 7 7 0 0 1 14 0Z"/><path fill-rule="evenodd" clip-rule="evenodd" d="M10 35C4.477 35 0 39.477 0 45v170c0 5.523 4.477 10 10 10h240c5.523 0 10-4.477 10-10V45c0-5.523-4.477-10-10-10H10Zm236 40V54a5 5 0 0 0-5-5H19a5 5 0 0 0-5 5v21h232ZM14 89v117a5 5 0 0 0 5 5h222a5 5 0 0 0 5-5V89H14Z"/></g></svg>
